X: 150
T:Bohola Jig
T:Seamus Cooley's Jig
R:jig
D:Bohola
M:6/8
L:1/8
K:D
fef d2B|ABA ABd|efe edB|~e3 efg|
fef d2B|ABA ABd|efe edB|~d3 d2e:|
|:fef a2f|fef a2f|~e3 edB|efe ede|[1 fef a2f|fef a2f|
efe edB|~d3 d2e:|[2 fef d2B|ABA ABd|efe edB|~d3 d2e||
